(Exported by FreeCAD)
(Post Processor: linuxcnc_post)
(Output Time:2021-11-14 08:29:38.327126)
(begin preamble)
G17 G54 G40 G49 G80 G90
G21
(begin operation: Fixture)
(machine units: mm/min)
G54 
(finish operation: Fixture)
(begin operation: 3mm alu flat sorotec001)
(machine units: mm/min)
(3mm alu flat sorotec001) 
M5
M6 T3 
G43 H3 
M3 S14000 
(finish operation: 3mm alu flat sorotec001)
(begin operation: LeadInOutDressup)
(machine units: mm/min)
(Profile) 
(Compensated Tool Path. Diameter: 3.0) 
G0 X52.061 Y55.242 Z5.000 
G0 Z3.000 
G1 X52.061 Y55.242 Z-3.000 F90.000 
G3 X52.061 Y52.061 I1.591 J-1.591 F400.000 
G1 X52.061 Y52.061 Z-3.000 F90.000 
G2 X52.500 Y51.000 Z-3.000 I-1.061 J-1.061 F400.000 
G1 X52.500 Y1.000 Z-3.000 F400.000 
G2 X51.000 Y-0.500 Z-3.000 I-1.500 J0.000 F400.000 
G1 X1.000 Y-0.500 Z-3.000 F400.000 
G2 X-0.500 Y1.000 Z-3.000 I0.000 J1.500 F400.000 
G1 X-0.500 Y51.000 Z-3.000 F400.000 
G2 X1.000 Y52.500 Z-3.000 I1.500 J-0.000 F400.000 
G1 X51.000 Y52.500 Z-3.000 F400.000 
G2 X52.061 Y52.061 Z-3.000 I-0.000 J-1.500 F400.000 
G3 X55.242 Y52.061 I1.591 J1.591 F400.000 
G0 Z5.000 
(finish operation: LeadInOutDressup)
(begin operation: Helix)
(machine units: mm/min)
(Helix) 
(helix cut operation) 
G0 Z5.000 
G0 X12.014 Y11.004 
G0 Z3.000 
G1 Z0.000 F90.000 
G2 X11.014 Y11.004 Z-0.750 I-0.500 J0.000 F400.000 
G2 X12.014 Y11.004 Z-1.500 I0.500 J0.000 F400.000 
G2 X11.014 Y11.004 Z-2.250 I-0.500 J0.000 F400.000 
G2 X12.014 Y11.004 Z-3.000 I0.500 J0.000 F400.000 
G2 X11.014 Y11.004 Z-3.000 I-0.500 J0.000 F400.000 
G2 X12.014 Y11.004 Z-3.000 I0.500 J0.000 F400.000 
G0 Z3.000 
G0 X11.500 Y41.000 
G0 Z3.000 
G1 Z0.000 F90.000 
G2 X10.500 Y41.000 Z-0.750 I-0.500 J0.000 F400.000 
G2 X11.500 Y41.000 Z-1.500 I0.500 J0.000 F400.000 
G2 X10.500 Y41.000 Z-2.250 I-0.500 J0.000 F400.000 
G2 X11.500 Y41.000 Z-3.000 I0.500 J0.000 F400.000 
G2 X10.500 Y41.000 Z-3.000 I-0.500 J0.000 F400.000 
G2 X11.500 Y41.000 Z-3.000 I0.500 J0.000 F400.000 
G0 Z3.000 
G0 X41.496 Y41.514 
G0 Z3.000 
G1 Z0.000 F90.000 
G2 X40.496 Y41.514 Z-0.750 I-0.500 J0.000 F400.000 
G2 X41.496 Y41.514 Z-1.500 I0.500 J0.000 F400.000 
G2 X40.496 Y41.514 Z-2.250 I-0.500 J0.000 F400.000 
G2 X41.496 Y41.514 Z-3.000 I0.500 J0.000 F400.000 
G2 X40.496 Y41.514 Z-3.000 I-0.500 J0.000 F400.000 
G2 X41.496 Y41.514 Z-3.000 I0.500 J0.000 F400.000 
G0 Z3.000 
G0 X42.009 Y11.518 
G0 Z3.000 
G1 Z0.000 F90.000 
G2 X41.009 Y11.518 Z-0.750 I-0.500 J0.000 F400.000 
G2 X42.009 Y11.518 Z-1.500 I0.500 J0.000 F400.000 
G2 X41.009 Y11.518 Z-2.250 I-0.500 J0.000 F400.000 
G2 X42.009 Y11.518 Z-3.000 I0.500 J0.000 F400.000 
G2 X41.009 Y11.518 Z-3.000 I-0.500 J0.000 F400.000 
G2 X42.009 Y11.518 Z-3.000 I0.500 J0.000 F400.000 
G0 Z3.000 
G0 Z5.000 
(finish operation: Helix)
(begin operation: Deburr)
(machine units: mm/min)
(Deburr) 
G0 Z5.000 
G0 X51.000 Y51.500 
G0 Z3.000 
G1 X51.000 Y51.500 Z-0.500 F90.000 
G2 X51.500 Y51.000 Z-0.500 I0.000 J-0.500 F400.000 
G1 X51.500 Y1.000 Z-0.500 F400.000 
G2 X51.000 Y0.500 Z-0.500 I-0.500 J-0.000 F400.000 
G1 X1.000 Y0.500 Z-0.500 F400.000 
G2 X0.500 Y1.000 Z-0.500 I0.000 J0.500 F400.000 
G1 X0.500 Y51.000 Z-0.500 F400.000 
G2 X1.000 Y51.500 Z-0.500 I0.500 J0.000 F400.000 
G1 X51.000 Y51.500 Z-0.500 F400.000 
G0 Z5.000 
G0 Z5.000 
G0 X13.014 Y11.004 
G0 Z3.000 
G1 X13.014 Y11.004 Z-0.500 F90.000 
G2 X13.014 Y11.004 Z-0.500 I-1.500 J0.000 F400.000 
G0 Z5.000 
G0 Z5.000 
G0 X12.500 Y41.000 
G0 Z3.000 
G1 X12.500 Y41.000 Z-0.500 F90.000 
G2 X12.500 Y41.000 Z-0.500 I-1.500 J0.000 F400.000 
G0 Z5.000 
G0 Z5.000 
G0 X42.496 Y41.514 
G0 Z3.000 
G1 X42.496 Y41.514 Z-0.500 F90.000 
G2 X42.496 Y41.514 Z-0.500 I-1.500 J0.000 F400.000 
G0 Z5.000 
G0 Z5.000 
G0 X43.009 Y11.518 
G0 Z3.000 
G1 X43.009 Y11.518 Z-0.500 F90.000 
G2 X43.009 Y11.518 Z-0.500 I-1.500 J0.000 F400.000 
G0 Z5.000 
G0 Z5.000 
(finish operation: Deburr)
(begin postamble)
M05
G17 G54 G90 G80 G40
M2
